assets/img/logo.svg

<?xml version="1.0" encoding="UTF-8" standalone="no"?>
<svg width="183px" height="28px" viewBox="111 211 183 28" version="1.1" xmlns="http://www.w3.org/2000/svg">
  <path d="M111.72,228.64 L115.932,227.776 L115.932,230.152 C115.932,231.664008 116.303996,232.761997 117.048,233.446 C117.792004,234.130003 118.727994,234.472 119.856,234.472 C121.008006,234.472 121.919997,234.106004 122.592,233.374 C123.264003,232.641996 123.6,231.628006 123.6,230.332 L123.6,212.476 L127.92,212.476 L127.92,230.224 C127.92,231.352006 127.728002,232.419995 127.344,233.428 C126.959998,234.436005 126.420003,235.317996 125.724,236.074 C125.027997,236.830004 124.188005,237.429998 123.204,237.874 C122.219995,238.318002 121.116006,238.54 119.892,238.54 C118.643994,238.54 117.516005,238.342002 116.508,237.946 C115.499995,237.549998 114.642004,236.992004 113.934,236.272 C113.225996,235.551996 112.680002,234.688005 112.296,233.68 C111.911998,232.671995 111.72,231.544006 111.72,230.296 L111.72,228.64 Z M144.804,236.056 C144.371998,236.848004 143.694005,237.453998 142.77,237.874 C141.845995,238.294002 140.868005,238.504 139.836,238.504 C138.779995,238.504 137.844004,238.324002 137.028,237.964 C136.211996,237.603998 135.522003,237.106003 134.958,236.47 C134.393997,235.833997 133.962001,235.096004 133.662,234.256 C133.361998,233.415996 133.212,232.504005 133.212,231.52 L133.212,220.468 L137.388,220.468 L137.388,230.764 C137.388,231.316003 137.453999,231.831998 137.586,232.312 C137.718001,232.792002 137.927999,233.211998 138.216,233.572 C138.504001,233.932002 138.869998,234.219999 139.314,234.436 C139.758002,234.652001 140.291997,234.76 140.916,234.76 C142.140006,234.76 143.057997,234.394004 143.67,233.662 C144.282003,232.929996 144.588,231.988006 144.588,230.836 L144.588,220.468 L148.764,220.468 L148.764,234.796 C148.764,235.516004 148.782,236.145997 148.818,236.686 C148.854,237.226003 148.896,237.663998 148.944,238 L144.948,238 C144.9,237.807999 144.864,237.526002 144.84,237.154 C144.816,236.781998 144.804,236.416002 144.804,236.056 Z M158.34,238 L154.164,238 L154.164,220.468 L158.232,220.468 L158.232,222.808 C158.808003,221.799995 159.569995,221.074002 160.518,220.63 C161.466005,220.185998 162.431995,219.964 163.416,219.964 C164.496005,219.964 165.431996,220.143998 166.224,220.504 C167.016004,220.864002 167.669997,221.361997 168.186,221.998 C168.702003,222.634003 169.091999,223.371996 169.356,224.212 C169.620001,225.052004 169.752,225.951995 169.752,226.912 L169.752,238 L165.576,238 L165.576,227.632 C165.576,226.551995 165.306003,225.634004 164.766,224.878 C164.225997,224.121996 163.296007,223.744 161.976,223.744 C160.775994,223.744 159.870003,224.145996 159.258,224.95 C158.645997,225.754004 158.34,226.731994 158.34,227.884 L158.34,238 Z M174.828,238 L174.828,220.468 L178.968,220.468 L178.968,238 L174.828,238 Z M174.18,214.312 C174.18,213.543996 174.443997,212.896003 174.972,212.368 C175.500003,211.839997 176.135996,211.576 176.88,211.576 C177.648004,211.576 178.295997,211.839997 178.824,212.368 C179.352003,212.896003 179.616,213.543996 179.616,214.312 C179.616,215.080004 179.352003,215.721997 178.824,216.238 C178.295997,216.754003 177.648004,217.012 176.88,217.012 C176.135996,217.012 175.500003,216.754003 174.972,216.238 C174.443997,215.721997 174.18,215.080004 174.18,214.312 Z M192.072,219.928 C193.392007,219.928 194.603994,220.161998 195.708,220.63 C196.812006,221.098002 197.771996,221.745996 198.588,222.574 C199.404004,223.402004 200.039998,224.379994 200.496,225.508 C200.952002,226.636006 201.18,227.871993 201.18,229.216 C201.18,230.560007 200.952002,231.801994 200.496,232.942 C200.039998,234.082006 199.404004,235.065996 198.588,235.894 C197.771996,236.722004 196.812006,237.369998 195.708,237.838 C194.603994,238.306002 193.392007,238.54 192.072,238.54 C190.775994,238.54 189.570006,238.306002 188.454,237.838 C187.337994,237.369998 186.378004,236.722004 185.574,235.894 C184.769996,235.065996 184.140002,234.082006 183.684,232.942 C183.227998,231.801994 183,230.560007 183,229.216 C183,227.871993 183.227998,226.636006 183.684,225.508 C184.140002,224.379994 184.769996,223.402004 185.574,222.574 C186.378004,221.745996 187.337994,221.098002 188.454,220.63 C189.570006,220.161998 190.775994,219.928 192.072,219.928 Z M192.072,234.796 C192.720003,234.796 193.337997,234.676001 193.926,234.436 C194.514003,234.195999 195.035998,233.842002 195.492,233.374 C195.948002,232.905998 196.307999,232.324003 196.572,231.628 C196.836001,230.931997 196.968,230.128005 196.968,229.216 C196.968,228.303995 196.836001,227.506003 196.572,226.822 C196.307999,226.137997 195.948002,225.562002 195.492,225.094 C195.035998,224.625998 194.514003,224.278001 193.926,224.05 C193.337997,223.821999 192.720003,223.708 192.072,223.708 C191.423997,223.708 190.806003,223.821999 190.218,224.05 C189.629997,224.278001 189.114002,224.625998 188.67,225.094 C188.225998,225.562002 187.866001,226.137997 187.59,226.822 C187.313999,227.506003 187.176,228.303995 187.176,229.216 C187.176,230.128005 187.313999,230.931997 187.59,231.628 C187.866001,232.324003 188.225998,232.905998 188.67,233.374 C189.114002,233.842002 189.629997,234.195999 190.218,234.436 C190.806003,234.676001 191.423997,234.796 192.072,234.796 Z M215.472,224.608 C214.991998,224.536 214.536002,224.5 214.104,224.5 C212.471992,224.5 211.278004,224.943996 210.522,225.832 C209.765996,226.720004 209.388,227.991992 209.388,229.648 L209.388,238 L205.212,238 L205.212,220.468 L209.28,220.468 L209.28,223.276 C209.688002,222.315995 210.347995,221.572003 211.26,221.044 C212.172005,220.515997 213.203994,220.252 214.356,220.252 C214.620001,220.252 214.847999,220.264 215.04,220.288 C215.232001,220.312 215.376,220.336 215.472,220.36 L215.472,224.608 Z M216.912,228.64 L221.124,227.776 L221.124,230.152 C221.124,231.664008 221.495996,232.761997 222.24,233.446 C222.984004,234.130003 223.919994,234.472 225.048,234.472 C226.200006,234.472 227.111997,234.106004 227.784,233.374 C228.456003,232.641996 228.792,231.628006 228.792,230.332 L228.792,212.476 L233.112,212.476 L233.112,230.224 C233.112,231.352006 232.920002,232.419995 232.536,233.428 C232.151998,234.436005 231.612003,235.317996 230.916,236.074 C230.219997,236.830004 229.380005,237.429998 228.396,237.874 C227.411995,238.318002 226.308006,238.54 225.084,238.54 C223.835994,238.54 222.708005,238.342002 221.7,237.946 C220.691995,237.549998 219.834004,236.992004 219.126,236.272 C218.417996,235.551996 217.872002,234.688005 217.488,233.68 C217.103998,232.671995 216.912,231.544006 216.912,230.296 L216.912,228.64 Z M246.288,234.796 C246.936003,234.796 247.553997,234.676001 248.142,234.436 C248.730003,234.195999 249.251998,233.842002 249.708,233.374 C250.164002,232.905998 250.523999,232.324003 250.788,231.628 C251.052001,230.931997 251.184,230.128005 251.184,229.216 C251.184,228.303995 251.052001,227.506003 250.788,226.822 C250.523999,226.137997 250.164002,225.562002 249.708,225.094 C249.251998,224.625998 248.730003,224.278001 248.142,224.05 C247.553997,223.821999 246.936003,223.708 246.288,223.708 C245.639997,223.708 245.022003,223.821999 244.434,224.05 C243.845997,224.278001 243.330002,224.625998 242.886,225.094 C242.441998,225.562002 242.082001,226.137997 241.806,226.822 C241.529999,227.506003 241.392,228.303995 241.392,229.216 C241.392,230.128005 241.529999,230.931997 241.806,231.628 C242.082001,232.324003 242.441998,232.905998 242.886,233.374 C243.330002,233.842002 243.845997,234.195999 244.434,234.436 C245.022003,234.676001 245.639997,234.796 246.288,234.796 Z M246.288,219.928 C247.608007,219.928 248.819994,220.161998 249.924,220.63 C251.028006,221.098002 251.987996,221.745996 252.804,222.574 C253.620004,223.402004 254.255998,224.379994 254.712,225.508 C255.168002,226.636006 255.396,227.871993 255.396,229.216 C255.396,230.560007 255.168002,231.801994 254.712,232.942 C254.255998,234.082006 253.620004,235.065996 252.804,235.894 C251.987996,236.722004 251.028006,237.369998 249.924,237.838 C248.819994,238.306002 247.608007,238.54 246.288,238.54 C244.991994,238.54 243.786006,238.306002 242.67,237.838 C241.553994,237.369998 240.594004,236.722004 239.79,235.894 C238.985996,235.065996 238.356002,234.082006 237.9,232.942 C237.443998,231.801994 237.216,230.560007 237.216,229.216 C237.216,227.871993 237.443998,226.636006 237.9,225.508 C238.356002,224.379994 238.985996,223.402004 239.79,222.574 C240.594004,221.745996 241.553994,221.098002 242.67,220.63 C243.786006,220.161998 244.991994,219.928 246.288,219.928 Z M259.428,238 L259.428,211.936 L263.532,211.936 L263.532,222.628 C263.940002,221.931997 264.617995,221.320003 265.566,220.792 C266.514005,220.263997 267.671993,220 269.04,220 C270.360007,220 271.523995,220.233998 272.532,220.702 C273.540005,221.170002 274.385997,221.817996 275.07,222.646 C275.754003,223.474004 276.269998,224.439994 276.618,225.544 C276.966002,226.648006 277.14,227.847994 277.14,229.144 C277.14,230.464007 276.948002,231.693994 276.564,232.834 C276.179998,233.974006 275.634004,234.957996 274.926,235.786 C274.217996,236.614004 273.354005,237.261998 272.334,237.73 C271.313995,238.198002 270.168006,238.432 268.896,238.432 C267.647994,238.432 266.562005,238.180003 265.638,237.676 C264.713995,237.171997 264.000003,236.500004 263.496,235.66 L263.496,238 L259.428,238 Z M272.928,229.18 C272.928,227.427991 272.490004,226.078005 271.614,225.13 C270.737996,224.181995 269.604007,223.708 268.212,223.708 C266.867993,223.708 265.746005,224.181995 264.846,225.13 C263.945995,226.078005 263.496,227.427991 263.496,229.18 C263.496,230.044004 263.615999,230.817997 263.856,231.502 C264.096001,232.186003 264.425998,232.767998 264.846,233.248 C265.266002,233.728002 265.763997,234.093999 266.34,234.346 C266.916003,234.598001 267.539997,234.724 268.212,234.724 C269.580007,234.724 270.707996,234.232005 271.596,233.248 C272.484004,232.263995 272.928,230.908009 272.928,229.18 Z M283.26,232.24 C283.332,233.032004 283.661997,233.727997 284.25,234.328 C284.838003,234.928003 285.695994,235.228 286.824,235.228 C287.688004,235.228 288.341998,235.030002 288.786,234.634 C289.230002,234.237998 289.452,233.764003 289.452,233.212 C289.452,232.731998 289.284002,232.324002 288.948,231.988 C288.611998,231.651998 288.096003,231.412001 287.4,231.268 L284.808,230.692 C283.247992,230.355998 282.072004,229.726005 281.28,228.802 C280.487996,227.877995 280.092,226.804006 280.092,225.58 C280.092,224.811996 280.259998,224.086003 280.596,223.402 C280.932002,222.717997 281.387997,222.118003 281.964,221.602 C282.540003,221.085997 283.217996,220.678001 283.998,220.378 C284.778004,220.077999 285.623995,219.928 286.536,219.928 C287.760006,219.928 288.785996,220.101998 289.614,220.45 C290.442004,220.798002 291.119997,221.223997 291.648,221.728 C292.176003,222.232003 292.565999,222.765997 292.818,223.33 C293.070001,223.894003 293.232,224.391998 293.304,224.824 L289.776,225.832 C289.728,225.591999 289.644001,225.316002 289.524,225.004 C289.403999,224.691998 289.218001,224.404001 288.966,224.14 C288.713999,223.875999 288.390002,223.654001 287.994,223.474 C287.597998,223.293999 287.112003,223.204 286.536,223.204 C285.791996,223.204 285.186002,223.401998 284.718,223.798 C284.249998,224.194002 284.016,224.667997 284.016,225.22 C284.016,225.700002 284.171998,226.095998 284.484,226.408 C284.796002,226.720002 285.227997,226.935999 285.78,227.056 L288.444,227.596 C290.100008,227.956002 291.353996,228.609995 292.206,229.558 C293.058004,230.506005 293.484,231.627994 293.484,232.924 C293.484,233.596003 293.346001,234.261997 293.07,234.922 C292.793999,235.582003 292.386003,236.181997 291.846,236.722 C291.305997,237.262003 290.616004,237.699998 289.776,238.036 C288.935996,238.372002 287.964006,238.54 286.86,238.54 C285.587994,238.54 284.508004,238.360002 283.62,238 C282.731996,237.639998 282.000003,237.190003 281.424,236.65 C280.847997,236.109997 280.416001,235.534003 280.128,234.922 C279.839999,234.309997 279.672,233.752003 279.624,233.248 L283.26,232.24 Z" stroke="none" fill="#fff" fill-rule="evenodd"></path>
</svg>

<?xml version="1.0" encoding="UTF-8" standalone="no"?><svg width="183" height="28" viewBox="111 211 183 28" xmlns="http://www.w3.org/2000/svg"><path d="M111.72 228.64l4.212-.864v2.376c0 1.512.372 2.61 1.116 3.294.744.684 1.68 1.026 2.808 1.026 1.152 0 2.064-.366 2.736-1.098.672-.732 1.008-1.746 1.008-3.042v-17.856h4.32v17.748a8.923 8.923 0 0 1-.576 3.204 8.142 8.142 0 0 1-1.62 2.646 7.666 7.666 0 0 1-2.52 1.8c-.984.444-2.088.666-3.312.666-1.248 0-2.376-.198-3.384-.594-1.008-.396-1.866-.954-2.574-1.674a7.404 7.404 0 0 1-1.638-2.592c-.384-1.008-.576-2.136-.576-3.384v-1.656zm33.084 7.416c-.432.792-1.11 1.398-2.034 1.818-.924.42-1.902.63-2.934.63-1.056 0-1.992-.18-2.808-.54a5.92 5.92 0 0 1-2.07-1.494 6.69 6.69 0 0 1-1.296-2.214c-.3-.84-.45-1.752-.45-2.736v-11.052h4.176v10.296c0 .552.066 1.068.198 1.548s.342.9.63 1.26.654.648 1.098.864c.444.216.978.324 1.602.324 1.224 0 2.142-.366 2.754-1.098.612-.732.918-1.674.918-2.826v-10.368h4.176v14.328c0 .72.018 1.35.054 1.89.036.54.078.978.126 1.314h-3.996a5.088 5.088 0 0 1-.108-.846 17.054 17.054 0 0 1-.036-1.098zM158.34 238h-4.176v-17.532h4.068v2.34c.576-1.008 1.338-1.734 2.286-2.178a6.767 6.767 0 0 1 2.898-.666c1.08 0 2.016.18 2.808.54.792.36 1.446.858 1.962 1.494a6.628 6.628 0 0 1 1.17 2.214c.264.84.396 1.74.396 2.7V238h-4.176v-10.368c0-1.08-.27-1.998-.81-2.754s-1.47-1.134-2.79-1.134c-1.2 0-2.106.402-2.718 1.206-.612.804-.918 1.782-.918 2.934V238zm16.488 0v-17.532h4.14V238h-4.14zm-.648-23.688c0-.768.264-1.416.792-1.944a2.6 2.6 0 0 1 1.908-.792c.768 0 1.416.264 1.944.792s.792 1.176.792 1.944-.264 1.41-.792 1.926-1.176.774-1.944.774c-.744 0-1.38-.258-1.908-.774s-.792-1.158-.792-1.926zm17.892 5.616c1.32 0 2.532.234 3.636.702a8.844 8.844 0 0 1 2.88 1.944 8.86 8.86 0 0 1 1.908 2.934c.456 1.128.684 2.364.684 3.708 0 1.344-.228 2.586-.684 3.726a8.817 8.817 0 0 1-1.908 2.952 8.844 8.844 0 0 1-2.88 1.944c-1.104.468-2.316.702-3.636.702-1.296 0-2.502-.234-3.618-.702a8.597 8.597 0 0 1-2.88-1.944 8.962 8.962 0 0 1-1.89-2.952c-.456-1.14-.684-2.382-.684-3.726 0-1.344.228-2.58.684-3.708a9.007 9.007 0 0 1 1.89-2.934 8.597 8.597 0 0 1 2.88-1.944c1.116-.468 2.322-.702 3.618-.702zm0 14.868a4.86 4.86 0 0 0 1.854-.36 4.59 4.59 0 0 0 1.566-1.062c.456-.468.816-1.05 1.08-1.746.264-.696.396-1.5.396-2.412 0-.912-.132-1.71-.396-2.394-.264-.684-.624-1.26-1.08-1.728a4.377 4.377 0 0 0-1.566-1.044 5.083 5.083 0 0 0-1.854-.342c-.648 0-1.266.114-1.854.342a4.21 4.21 0 0 0-1.548 1.044c-.444.468-.804 1.044-1.08 1.728-.276.684-.414 1.482-.414 2.394 0 .912.138 1.716.414 2.412.276.696.636 1.278 1.08 1.746.444.468.96.822 1.548 1.062a4.86 4.86 0 0 0 1.854.36zm23.4-10.188a9.236 9.236 0 0 0-1.368-.108c-1.632 0-2.826.444-3.582 1.332-.756.888-1.134 2.16-1.134 3.816V238h-4.176v-17.532h4.068v2.808a4.595 4.595 0 0 1 1.98-2.232c.912-.528 1.944-.792 3.096-.792.264 0 .492.012.684.036.192.024.336.048.432.072v4.248zm1.44 4.032l4.212-.864v2.376c0 1.512.372 2.61 1.116 3.294.744.684 1.68 1.026 2.808 1.026 1.152 0 2.064-.366 2.736-1.098.672-.732 1.008-1.746 1.008-3.042v-17.856h4.32v17.748a8.923 8.923 0 0 1-.576 3.204 8.142 8.142 0 0 1-1.62 2.646 7.666 7.666 0 0 1-2.52 1.8c-.984.444-2.088.666-3.312.666-1.248 0-2.376-.198-3.384-.594-1.008-.396-1.866-.954-2.574-1.674a7.404 7.404 0 0 1-1.638-2.592c-.384-1.008-.576-2.136-.576-3.384v-1.656zm29.376 6.156a4.86 4.86 0 0 0 1.854-.36 4.59 4.59 0 0 0 1.566-1.062c.456-.468.816-1.05 1.08-1.746.264-.696.396-1.5.396-2.412 0-.912-.132-1.71-.396-2.394-.264-.684-.624-1.26-1.08-1.728a4.377 4.377 0 0 0-1.566-1.044 5.083 5.083 0 0 0-1.854-.342c-.648 0-1.266.114-1.854.342a4.21 4.21 0 0 0-1.548 1.044c-.444.468-.804 1.044-1.08 1.728-.276.684-.414 1.482-.414 2.394 0 .912.138 1.716.414 2.412.276.696.636 1.278 1.08 1.746.444.468.96.822 1.548 1.062a4.86 4.86 0 0 0 1.854.36zm0-14.868c1.32 0 2.532.234 3.636.702a8.844 8.844 0 0 1 2.88 1.944 8.86 8.86 0 0 1 1.908 2.934c.456 1.128.684 2.364.684 3.708 0 1.344-.228 2.586-.684 3.726a8.817 8.817 0 0 1-1.908 2.952 8.844 8.844 0 0 1-2.88 1.944c-1.104.468-2.316.702-3.636.702-1.296 0-2.502-.234-3.618-.702a8.597 8.597 0 0 1-2.88-1.944 8.962 8.962 0 0 1-1.89-2.952c-.456-1.14-.684-2.382-.684-3.726 0-1.344.228-2.58.684-3.708a9.007 9.007 0 0 1 1.89-2.934 8.597 8.597 0 0 1 2.88-1.944c1.116-.468 2.322-.702 3.618-.702zM259.428 238v-26.064h4.104v10.692c.408-.696 1.086-1.308 2.034-1.836.948-.528 2.106-.792 3.474-.792 1.32 0 2.484.234 3.492.702a7.146 7.146 0 0 1 2.538 1.944c.684.828 1.2 1.794 1.548 2.898.348 1.104.522 2.304.522 3.6 0 1.32-.192 2.55-.576 3.69-.384 1.14-.93 2.124-1.638 2.952a7.452 7.452 0 0 1-2.592 1.944c-1.02.468-2.166.702-3.438.702-1.248 0-2.334-.252-3.258-.756-.924-.504-1.638-1.176-2.142-2.016V238h-4.068zm13.5-8.82c0-1.752-.438-3.102-1.314-4.05-.876-.948-2.01-1.422-3.402-1.422-1.344 0-2.466.474-3.366 1.422-.9.948-1.35 2.298-1.35 4.05 0 .864.12 1.638.36 2.322.24.684.57 1.266.99 1.746.42.48.918.846 1.494 1.098.576.252 1.2.378 1.872.378 1.368 0 2.496-.492 3.384-1.476.888-.984 1.332-2.34 1.332-4.068zm10.332 3.06c.072.792.402 1.488.99 2.088.588.6 1.446.9 2.574.9.864 0 1.518-.198 1.962-.594.444-.396.666-.87.666-1.422 0-.48-.168-.888-.504-1.224-.336-.336-.852-.576-1.548-.72l-2.592-.576c-1.56-.336-2.736-.966-3.528-1.89a4.8 4.8 0 0 1-1.188-3.222c0-.768.168-1.494.504-2.178a5.875 5.875 0 0 1 1.368-1.8 6.523 6.523 0 0 1 2.034-1.224 7.01 7.01 0 0 1 2.538-.45c1.224 0 2.25.174 3.078.522.828.348 1.506.774 2.034 1.278.528.504.918 1.038 1.17 1.602.252.564.414 1.062.486 1.494l-3.528 1.008a5.188 5.188 0 0 0-.252-.828 2.6 2.6 0 0 0-.558-.864 3.093 3.093 0 0 0-.972-.666c-.396-.18-.882-.27-1.458-.27-.744 0-1.35.198-1.818.594-.468.396-.702.87-.702 1.422 0 .48.156.876.468 1.188.312.312.744.528 1.296.648l2.664.54c1.656.36 2.91 1.014 3.762 1.962.852.948 1.278 2.07 1.278 3.366 0 .672-.138 1.338-.414 1.998a5.578 5.578 0 0 1-1.224 1.8c-.54.54-1.23.978-2.07 1.314-.84.336-1.812.504-2.916.504-1.272 0-2.352-.18-3.24-.54-.888-.36-1.62-.81-2.196-1.35-.576-.54-1.008-1.116-1.296-1.728-.288-.612-.456-1.17-.504-1.674l3.636-1.008z" fill="#fff" fill-rule="evenodd"/></svg>
